X:0942
M:C
L:1/8
Q:1/2=100
K:G
e2ge d2ed|B2gB A4|e2ge d3 e|g>aba g4  |e2ge d2ed|cBgB A3B|G>ABc d>edc|B2AG Bcd2|]

